icons/plexis/48/gPicon.svg

<svg xmlns="http://www.w3.org/2000/svg" viewBox="0 0 48 48">
 <defs>
  <linearGradient id="linearGradient3958" y1="48" x2="0" y2="0.135" gradientUnits="userSpaceOnUse">
   <stop style="stop-color:#d6d6e6;stop-opacity:1"/>
   <stop offset="1" style="stop-color:#e2e2ee;stop-opacity:1"/>
  </linearGradient>
 </defs>
 <g>
  
  
  
 </g>
 <g>
  <path d="m 24 1 c 22.703 0 23 0.297 23 23 c 0 22.703 -0.297 23 -23 23 -22.703 0 -23 -0.297 -23 -23 0 -22.703 0.297 -23 23 -23 z" style="fill:url(#linearGradient3958);fill-opacity:1"/>
 </g>
 <g>
  
 </g>
 <path d="m 25 10 a 2 2 0 0 0 -2 2 2 2 0 0 0 2 2 2 2 0 0 0 2 -2 2 2 0 0 0 -2 -2 z m -4.975 0.99 a 2 2 0 0 0 -2 2 2 2 0 0 0 2 2 2 2 0 0 0 2 -2 2 2 0 0 0 -2 -2 z m 9.949 0 a 2 2 0 0 0 -2 2 2 2 0 0 0 2 2 2 2 0 0 0 2 -2 2 2 0 0 0 -2 -2 z m -14.168 2.816 a 2 2 0 0 0 -2 2 2 2 0 0 0 2 2 2 2 0 0 0 2 -2 2 2 0 0 0 -2 -2 z m 18.387 0 a 2 2 0 0 0 -2 2 2 2 0 0 0 2 2 2 2 0 0 0 2 -2 2 2 0 0 0 -2 -2 z m -21.2 4.219 a 2 2 0 0 0 -2 2 2 2 0 0 0 2 2 2 2 0 0 0 2 -2 2 2 0 0 0 -2 -2 z m 24.02 0 a 2 2 0 0 0 -2 2 2 2 0 0 0 2 2 2 2 0 0 0 2 -2 2 2 0 0 0 -2 -2 z M 12 23 a 2 2 0 0 0 -2 2 2 2 0 0 0 2 2 2 2 0 0 0 2 -2 2 2 0 0 0 -2 -2 z m 13 0 a 2 2 0 0 0 -2 2 2 2 0 0 0 2 2 2 2 0 0 0 2 -2 2 2 0 0 0 -2 -2 z m 13 0 a 2 2 0 0 0 -2 2 2 2 0 0 0 2 2 2 2 0 0 0 2 -2 2 2 0 0 0 -2 -2 z m -25.01 4.975 a 2 2 0 0 0 -2 2 2 2 0 0 0 2 2 2 2 0 0 0 2 -2 2 2 0 0 0 -2 -2 z m 24.02 0 a 2 2 0 0 0 -2 2 2 2 0 0 0 2 2 2 2 0 0 0 2 -2 2 2 0 0 0 -2 -2 z m -21.2 4.219 a 2 2 0 0 0 -2 2 2 2 0 0 0 2 2 2 2 0 0 0 2 -2 2 2 0 0 0 -2 -2 z m 18.387 0 a 2 2 0 0 0 -2 2 2 2 0 0 0 2 2 2 2 0 0 0 2 -2 2 2 0 0 0 -2 -2 z m -14.168 2.816 a 2 2 0 0 0 -2 2 2 2 0 0 0 2 2 2 2 0 0 0 2 -2 2 2 0 0 0 -2 -2 z m 9.949 0 a 2 2 0 0 0 -2 2 2 2 0 0 0 2 2 2 2 0 0 0 2 -2 2 2 0 0 0 -2 -2 z M 25 36 a 2 2 0 0 0 -2 2 2 2 0 0 0 2 2 2 2 0 0 0 2 -2 2 2 0 0 0 -2 -2 z" style="fill:#000;opacity:0.1;fill-opacity:1;stroke:none"/>
 <path d="M 24 9 A 2 2 0 0 0 22 11 A 2 2 0 0 0 24 13 A 2 2 0 0 0 26 11 A 2 2 0 0 0 24 9 z M 19.03 9.99 A 2 2 0 0 0 17.03 11.99 A 2 2 0 0 0 19.03 13.99 A 2 2 0 0 0 21.03 11.99 A 2 2 0 0 0 19.03 9.99 z M 28.975 9.99 A 2 2 0 0 0 26.975 11.99 A 2 2 0 0 0 28.975 13.99 A 2 2 0 0 0 30.975 11.99 A 2 2 0 0 0 28.975 9.99 z M 14.807 12.807 A 2 2 0 0 0 12.807 14.807 A 2 2 0 0 0 14.807 16.807 A 2 2 0 0 0 16.807 14.807 A 2 2 0 0 0 14.807 12.807 z M 33.19 12.807 A 2 2 0 0 0 31.19 14.807 A 2 2 0 0 0 33.19 16.807 A 2 2 0 0 0 35.19 14.807 A 2 2 0 0 0 33.19 12.807 z M 11.99 17.03 A 2 2 0 0 0 9.99 19.03 A 2 2 0 0 0 11.99 21.03 A 2 2 0 0 0 13.99 19.03 A 2 2 0 0 0 11.99 17.03 z M 36.01 17.03 A 2 2 0 0 0 34.01 19.03 A 2 2 0 0 0 36.01 21.03 A 2 2 0 0 0 38.01 19.03 A 2 2 0 0 0 36.01 17.03 z M 11 22 A 2 2 0 0 0 9 24 A 2 2 0 0 0 11 26 A 2 2 0 0 0 13 24 A 2 2 0 0 0 11 22 z M 24 22 A 2 2 0 0 0 22 24 A 2 2 0 0 0 24 26 A 2 2 0 0 0 26 24 A 2 2 0 0 0 24 22 z M 37 22 A 2 2 0 0 0 35 24 A 2 2 0 0 0 37 26 A 2 2 0 0 0 39 24 A 2 2 0 0 0 37 22 z M 11.99 26.975 A 2 2 0 0 0 9.99 28.975 A 2 2 0 0 0 11.99 30.975 A 2 2 0 0 0 13.99 28.975 A 2 2 0 0 0 11.99 26.975 z M 36.01 26.975 A 2 2 0 0 0 34.01 28.975 A 2 2 0 0 0 36.01 30.975 A 2 2 0 0 0 38.01 28.975 A 2 2 0 0 0 36.01 26.975 z M 14.807 31.19 A 2 2 0 0 0 12.807 33.19 A 2 2 0 0 0 14.807 35.19 A 2 2 0 0 0 16.807 33.19 A 2 2 0 0 0 14.807 31.19 z M 33.19 31.19 A 2 2 0 0 0 31.19 33.19 A 2 2 0 0 0 33.19 35.19 A 2 2 0 0 0 35.19 33.19 A 2 2 0 0 0 33.19 31.19 z M 19.03 34.01 A 2 2 0 0 0 17.03 36.01 A 2 2 0 0 0 19.03 38.01 A 2 2 0 0 0 21.03 36.01 A 2 2 0 0 0 19.03 34.01 z M 28.975 34.01 A 2 2 0 0 0 26.975 36.01 A 2 2 0 0 0 28.975 38.01 A 2 2 0 0 0 30.975 36.01 A 2 2 0 0 0 28.975 34.01 z M 24 35 A 2 2 0 0 0 22 37 A 2 2 0 0 0 24 39 A 2 2 0 0 0 26 37 A 2 2 0 0 0 24 35 z" style="fill:#4040b0;opacity:1;fill-opacity:1;stroke:none"/>
</svg>

<svg viewBox="0 0 48 48" xmlns="http://www.w3.org/2000/svg" xmlns:xlink="http://www.w3.org/1999/xlink">
  <linearGradient id="a" gradientUnits="userSpaceOnUse" x2="0" y1="48" y2=".135">
    <stop offset="0" stop-color="#d6d6e6"/>
    <stop offset="1" stop-color="#e2e2ee"/>
  </linearGradient>
  <path d="m24 1c22.703 0 23 .297 23 23 0 22.703-.297 23-23 23-22.703 0-23-.297-23-23 0-22.703.297-23 23-23z" fill="url(#a)"/>
  <path d="m25 10a2 2 0 0 0-2 2 2 2 0 0 0  2 2 2 2 0 0 0  2-2 2 2 0 0 0-2-2zm-4.975.99a2 2 0 0 0-2 2 2 2 0 0 0  2 2 2 2 0 0 0  2-2 2 2 0 0 0-2-2zm9.949 0a2 2 0 0 0-2 2 2 2 0 0 0  2 2 2 2 0 0 0  2-2 2 2 0 0 0-2-2zm-14.168 2.816a2 2 0 0 0-2 2 2 2 0 0 0  2 2 2 2 0 0 0  2-2 2 2 0 0 0-2-2zm18.387 0a2 2 0 0 0-2 2 2 2 0 0 0  2 2 2 2 0 0 0  2-2 2 2 0 0 0-2-2zm-21.2 4.219a2 2 0 0 0-2 2 2 2 0 0 0  2 2 2 2 0 0 0  2-2 2 2 0 0 0-2-2zm24.02 0a2 2 0 0 0-2 2 2 2 0 0 0  2 2 2 2 0 0 0  2-2 2 2 0 0 0-2-2zm-25.013 4.975a2 2 0 0 0-2 2 2 2 0 0 0  2 2 2 2 0 0 0  2-2 2 2 0 0 0-2-2zm13 0a2 2 0 0 0-2 2 2 2 0 0 0  2 2 2 2 0 0 0  2-2 2 2 0 0 0-2-2zm13 0a2 2 0 0 0-2 2 2 2 0 0 0  2 2 2 2 0 0 0  2-2 2 2 0 0 0-2-2zm-25.01 4.975a2 2 0 0 0-2 2 2 2 0 0 0  2 2 2 2 0 0 0  2-2 2 2 0 0 0-2-2zm24.02 0a2 2 0 0 0-2 2 2 2 0 0 0  2 2 2 2 0 0 0  2-2 2 2 0 0 0-2-2zm-21.2 4.219a2 2 0 0 0-2 2 2 2 0 0 0  2 2 2 2 0 0 0  2-2 2 2 0 0 0-2-2zm18.387 0a2 2 0 0 0-2 2 2 2 0 0 0  2 2 2 2 0 0 0  2-2 2 2 0 0 0-2-2zm-14.168 2.816a2 2 0 0 0-2 2 2 2 0 0 0  2 2 2 2 0 0 0  2-2 2 2 0 0 0-2-2zm9.949 0a2 2 0 0 0-2 2 2 2 0 0 0  2 2 2 2 0 0 0  2-2 2 2 0 0 0-2-2zm-4.978.99a2 2 0 0 0-2 2 2 2 0 0 0  2 2 2 2 0 0 0  2-2 2 2 0 0 0-2-2z" opacity=".1"/>
  <path d="m24 9a2 2 0 0 0-2 2 2 2 0 0 0  2 2 2 2 0 0 0  2-2 2 2 0 0 0-2-2zm-4.97.99a2 2 0 0 0-2 2 2 2 0 0 0  2 2 2 2 0 0 0  2-2 2 2 0 0 0-2-2zm9.945 0a2 2 0 0 0-2 2 2 2 0 0 0  2 2 2 2 0 0 0  2-2 2 2 0 0 0-2-2zm-14.168 2.817a2 2 0 0 0-2 2 2 2 0 0 0  2 2 2 2 0 0 0  2-2 2 2 0 0 0-2-2zm18.383 0a2 2 0 0 0-2 2 2 2 0 0 0  2 2 2 2 0 0 0  2-2 2 2 0 0 0-2-2zm-21.2 4.223a2 2 0 0 0-2 2 2 2 0 0 0  2 2 2 2 0 0 0  2-2 2 2 0 0 0-2-2zm24.02 0a2 2 0 0 0-2 2 2 2 0 0 0  2 2 2 2 0 0 0  2-2 2 2 0 0 0-2-2zm-25.01 4.97a2 2 0 0 0-2 2 2 2 0 0 0  2 2 2 2 0 0 0  2-2 2 2 0 0 0-2-2zm13 0a2 2 0 0 0-2 2 2 2 0 0 0  2 2 2 2 0 0 0  2-2 2 2 0 0 0-2-2zm13 0a2 2 0 0 0-2 2 2 2 0 0 0  2 2 2 2 0 0 0  2-2 2 2 0 0 0-2-2zm-25.01 4.975a2 2 0 0 0-2 2 2 2 0 0 0  2 2 2 2 0 0 0  2-2 2 2 0 0 0-2-2zm24.02 0a2 2 0 0 0-2 2 2 2 0 0 0  2 2 2 2 0 0 0  2-2 2 2 0 0 0-2-2zm-21.203 4.215a2 2 0 0 0-2 2 2 2 0 0 0  2 2 2 2 0 0 0  2-2 2 2 0 0 0-2-2zm18.383 0a2 2 0 0 0-2 2 2 2 0 0 0  2 2 2 2 0 0 0  2-2 2 2 0 0 0-2-2zm-14.16 2.82a2 2 0 0 0-2 2 2 2 0 0 0  2 2 2 2 0 0 0  2-2 2 2 0 0 0-2-2zm9.945 0a2 2 0 0 0-2 2 2 2 0 0 0  2 2 2 2 0 0 0  2-2 2 2 0 0 0-2-2zm-4.975.99a2 2 0 0 0-2 2 2 2 0 0 0  2 2 2 2 0 0 0  2-2 2 2 0 0 0-2-2z" fill="#4040b0"/>
</svg>
